!!!OTL: 381. Fruehlingsempfindung.
!!!COM: J. Franz Xaver Sterkel
!!!ODT: 1801
!!!ARE: Europa, Mitteleuropa, Deutschland
!!!SCT: B0381
!!!TXL: @@DE
!!!YEM: Copyright 1995, estate of Helmut Schaffrath.
**kern	**text
*ICvox	*
*Ivox	*
*clefG2	*
*M2/4	*
*k[f#]	*
*G:	*
!LO:TX:a:t=Nicht ʒu geſchwind.	!
{16.d	Al-
32d	-les
=1	=1
8.g	liebt
16g	und
8.g	paart
16g	ſich
=2	=2
16gL	wie-
16f#J	.
8f#	-der,
8r}	.
{16d	lie-
16f#	-bend
=3	=3
8.a	ſteigt
16a	der
16a/L	Lenʒ
16ccJ	.
16bL	her-
16aJ	.
=4	=4
16aL	-nie
16gJ	.
8g	der
8r}	.
{16d	und
16d	um-
=5	=5
8.b/	-armt
16a	die
16gL	jun-
16f#J	.
16gL	-ge
16bJ	.
=6	=6
8b/L	Flur.
8aJ	.
8r}	.
{16cc	Sü-
16a	-ßes,
=7	=7
16gL	ſeh-
16f#J	.
16eL	-nen-
16dJ	.
8d	-des
16eL	Ver-
16f#J	.
=8	=8
16aL	-lan-
16gJ	.
4g}	-gen,
{16cc	ei-
16a	-nem
=9	=9
16gL	We-
16f#J	.
16eL	-ſen
16dJ	.
8d	an-
16eL	-ʒu-
16f#J	.
=10	=10
16aL	-han-
16gJ	.
4g}	-gen,
{16b	lebt
16b	und
=11	=11
16bL	webt
16aJ	.
16ccL	durch
16aJ	.
16aL	die
16gJ	.
16gL	Na-
16f#J	.
=12	=12
4.dd}	-tur,
{16cc	lebt
16b	und
=13	=13
16bL	webt
16aJ	.
16ccL	durch
16aJ	.
16aL	die
16gJ	.
16gL	Na-
16f#J	.
=14	=14
4g	-tur.
8r}	.
==	==
!!!AGN: Liebes - Lied, Liebes - Lust
!!!GTL: Liebeslieder - Liebeslust
!!!ONB: ESAC (Essen Associative Code) Database: BOEHME
!!!AMT: simple duple
!!!AIN: vox
!!!EED: Helmut Schaffrath
!!!EEV: 1.0
!!@@COMMENT:"Gedicht von Wilh. Gottlieb Becker 1782. Ʒuerſt in der Göttinger Blumenleſe" 1783. S. 83.
!!Dann mit Mel. in Becker's "Taſchenbuch ʒum geſell. Vergnügen". Leipʒig 1801. S. 281. Bemerkt
!!dabei: Die Mel. von Sterkel iſt ʒwar nicht neu, aber in vielen Gegenden unbekannt und wegen
!!des verbeſſerten Tertes beigefügt worden". Jch gebe den verb. Text von 1801, der noch manchen
!!Unſinn enthält; deß ungeachtet wurde das Lied ʒu Anfang unſeres Jahrhunderts, mit Clavier- oder
!!Guitarrebegleitung viel geſungen. Original der Mel, war Bdur."
!!@@END:
!!!Text: W. G. Becker
!!!URL-scan: https://archive.org/details/BoehmeVtLieder1895/page/n319/mode/2up
!!!ENC: Anna Maria Matuszewska
!!!EEV: 2024/08/07
*-	*-
